images/footer/social/face.svg

<svg width="18" height="17" viewBox="0 0 18 17" fill="none" xmlns="http://www.w3.org/2000/svg">
<path d="M5.16383 5.82065V4.25C5.16383 1.84783 8.63466 0 12.8362 0H17.9511V3.1413H12.8362C12.2882 3.1413 11.5575 3.60326 11.5575 4.15761V5.82065H17.9511V9.05435H11.5575V16.9076H5.16383V9.05435H0.0489197V5.82065H5.16383Z" fill="white"/>
</svg>

<svg width="18" height="17" fill="none" xmlns="http://www.w3.org/2000/svg"><path d="M5.164 5.82V4.25c0-2.402 3.47-4.25 7.672-4.25h5.115v3.141h-5.115c-.548 0-1.279.462-1.279 1.017V5.82h6.394v3.233h-6.394v7.854H5.164V9.054H.049V5.821h5.115z" fill="#fff"/></svg>
